X: 4901
T: Branch Line, The
R: polka
M: 2/4
K: Gmajor
e|(dB) (BG)|(FA) (Ac)|(BG) (Bd)|g2 (ge)|
(dB) (BG)|(FA) (Ac)|(BG) dB|G2 G:|
d|(ef) ge|(fa) dd|(ef ga)|f2 d. d.|
(efgf)|(gfga)|(efge)|d3/2B B3/2G|
(FA) (Ac)|(B3/2/G) (B3/2d)|g2 (ge)|d3/2B B3/2G|
(FA) (Ac)|B3/2G d3/2B|G2 G||

